!!!ONR: No. 12
!! From Harold Courlander, "Haiti Singing"
!! Chapel Hill: University of North Carolina Press, 1939
!! Copyright University of North Carolina Press
!!!ENC: D. Huron
**kern
*clefG2
*k[12]
*M2/4
=1-
4r
8r
8dd
=2
4b
[4g
=3
4.g]
8dd
=4
4b
[4g
=5
8g]
8b
8dd
8ee
=6
8gg
8ee
[8dd
=7
8dd]
8b
8ee
8dd
=8
[2b
=9
4.b
8dd
=10
4b
[4g
=11
4.g]
8dd
=12
4b
[4g
=13
8g]
8b
8dd
8ee
=14
8gg
8gg
8ee
[8dd
=15
8dd]
8b
8ee
8dd
=16
[2b
=17
4b]
8gg
8ee
=18
4gg
8ee
[8dd
=19
8dd]
8b
8ee
8dd
=20
[2a
=21
8a]
8e
8g
8b
=22
8dd
(8b
8ee)
[8dd
=23
8dd]
8b
8dd
[8a
=24
2a_
=25
8a]
8ee
8dd
8b
=26
8b
8dd
8dd
[8gg
=27
8gg]
8b
8ee
8dd
=28
6b
6b
[6b
=29
2b]
=30
8ee
8dd
4ee
=31
8ee
8dd
8.ee
16dd
=32
6a
6a
6a
=33
8b
8dd
8b
8dd
=34
8g
8b
8.dd
16b
=35
8ee
8dd
4a
=36
8a
8a
8a
8b
=37
8g
4.a
==
*-
